X:188
T:Robin Adair. HSJJ.190
M:3/4
L:1/8
Q:1/4=100
S:HSJ Jackson,Wyresdale,Lancs.1823
R:.Air
O:England
A:Lancashire
N:Finis Hujus?
H:1823
Z:vmp.Chris Partington
K:C
G2A2B2|c3de2|G>c A>c B>d|c4z2|\
G2A2B2|c3de2|G<c A<c B<d|c4z2|!
e2e2e2|g3GG2|e2e-g (3fdB|c3AG2|g2(gf ed)|\
c3dHe2|G>c”^Finis Hujus” A>c B>d|c4|]

